X: 1
T: Flying Dutchman, The
M: 6/8
L: 1/8
R: jig
K: Gmaj
FGG dGG|eGG dBA|FGG dGG|edB AFA|
~G3 dGG|edB def|afe dBA|Bee dBA:|
~g3 bge|f2g afd|g2a bge|edB GBd|
g2a bge|~f3 ~a3|bag agf|egf edB :|
